X: 8871
T: Cumberland, The
R: waltz
M: 3/4
K: Dmajor
AA|:D2 F2 AA|D2 F2 AA|D2 F2 A2|f4 fg|f2 e2 d2|
A4 AB|1 A2 F2 D2|E4 AA:|2 A2 c2 e2|d4 A2||
|:f4 d2|e4 d2|cd c2 B2|G4 A2|Bc B2 A2|
Bc B2 A2|1 Bc B2 A2|F4 A2:|2 A2 c2 e2|d6||

